X: 24126
T: Longford Lady, The
R: reel
M: 4/4
K: Gmajor
|:DC|B,G, (3G,G,G, G,G,B,D|GFGB dBGB|cAFA D2DE|FEFG AdcA|
G G, (3G,G,G, G,G,B,D|GFGB dBGB|cAFA DEFA|(3Bcd cA G2:|
|:(3Bcd|gd (3ddd gdad|gd (3ddd gd (3Bcd|gd (3ddd gdag|fgab agfa|
(3ggg ga gdBd|gdBG DGBd|cAFA DAFA|(3Bcd cA GA:|

